svgs/regular/file-pen.svg

<svg xmlns="http://www.w3.org/2000/svg" viewBox="0 0 576 512"><!--! Font Awesome Pro 6.4.2 by @fontawesome - https://fontawesome.com License - https://fontawesome.com/license (Commercial License) Copyright 2023 Fonticons, Inc. --><path d="M64 464H262.6l-5.1 20.5c-2.3 9.2-1.8 18.8 1.3 27.5H64c-35.3 0-64-28.7-64-64V64C0 28.7 28.7 0 64 0H229.5c17 0 33.3 6.7 45.3 18.7l90.5 90.5c12 12 18.7 28.3 18.7 45.3V285.7l-48 48V160H256c-17.7 0-32-14.3-32-32V48H64c-8.8 0-16 7.2-16 16V448c0 8.8 7.2 16 16 16zM549.8 235.7l14.4 14.4c15.6 15.6 15.6 40.9 0 56.6l-29.4 29.4-71-71 29.4-29.4c15.6-15.6 40.9-15.6 56.6 0zM311.9 417L441.1 287.8l71 71L382.9 487.9c-4.1 4.1-9.2 7-14.9 8.4l-60.1 15c-5.5 1.4-11.2-.2-15.2-4.2s-5.6-9.7-4.2-15.2l15-60.1c1.4-5.6 4.3-10.8 8.4-14.9z"/></svg>

<svg xmlns="http://www.w3.org/2000/svg" viewBox="0 0 576 512"><!--! Font Awesome Pro 6.1.1 by @fontawesome - https://fontawesome.com License - https://fontawesome.com/license (Commercial License) Copyright 2022 Fonticons, Inc. --><path d="M64 464H262.5L257.4 484.2C255.1 493.6 255.7 503.2 258.8 512H64C28.65 512 0 483.3 0 448V64C0 28.65 28.65 0 64 0H229.5C246.5 0 262.7 6.743 274.7 18.75L365.3 109.3C377.3 121.3 384 137.5 384 154.5V299.6L336 347.6V160H256C238.3 160 224 145.7 224 128V48H64C55.16 48 48 55.16 48 64V448C48 456.8 55.16 464 64 464H64zM564.1 250.1C579.8 265.7 579.8 291 564.1 306.7L534.7 336.1L463.8 265.1L493.2 235.7C508.8 220.1 534.1 220.1 549.8 235.7L564.1 250.1zM311.9 416.1L441.1 287.8L512.1 358.7L382.9 487.9C378.8 492 373.6 494.9 368 496.3L307.9 511.4C302.4 512.7 296.7 511.1 292.7 507.2C288.7 503.2 287.1 497.4 288.5 491.1L303.5 431.8C304.9 426.2 307.8 421.1 311.9 416.1V416.1z"/></svg>
